Sources/FrostedUI/Resources/Icons.xcassets/starFilled12.imageset/star-filled-12.svg

<svg width="12" height="12" viewBox="0 0 12 12" fill="none" xmlns="http://www.w3.org/2000/svg" data-fui-icon="true">
  <path
    d="M4.43164 1.60339C5.12142 0.398813 6.87858 0.398814 7.56836 1.60339L7.63379 1.72742L8.32617 3.17175L9.92383 3.38171C11.4305 3.57929 12.0462 5.44094 10.9316 6.49304L9.76855 7.5907L10.0605 9.15808C10.3407 10.6646 8.74904 11.7999 7.41895 11.0819L6 10.3153L4.58105 11.0819C3.25115 11.7997 1.6593 10.6648 1.93945 9.15808L2.23047 7.5907L1.06836 6.49304C-0.0460737 5.44092 0.569622 3.57931 2.07617 3.38171L3.67285 3.17175L4.36621 1.72742L4.43164 1.60339ZM8.20801 9.79089C8.20955 9.79127 8.21135 9.79054 8.21289 9.79089C8.18578 9.78471 8.15839 9.77593 8.13184 9.7616L8.20801 9.79089ZM8.84375 8.44226L8.51465 9.05066L8.84473 8.44226C8.84297 8.44131 8.84063 8.44027 8.83887 8.43933L8.84375 8.44226ZM2.64648 4.81921L2.27148 4.86902L4.50684 4.57605L2.64648 4.81921ZM9.72852 4.86902L9.35254 4.81921L7.49316 4.57605L9.72852 4.86902Z"
    fill="currentColor"
  />
</svg>

<svg xmlns="http://www.w3.org/2000/svg" width="12" height="12" fill="none" data-fui-icon="true" viewBox="0 0 12 12"><path fill="currentColor" d="M4.432 1.603C5.122.4 6.879.4 7.568 1.603l.066.124.692 1.445 1.598.21c1.507.197 2.122 2.059 1.008 3.111L9.769 7.591l.291 1.567c.28 1.507-1.311 2.642-2.641 1.924L6 10.315l-1.419.767c-1.33.718-2.922-.417-2.642-1.924l.291-1.567-1.162-1.098C-.046 5.441.57 3.579 2.076 3.382l1.597-.21.693-1.445zm3.776 8.188h.005a.3.3 0 0 1-.081-.03zm.636-1.349-.33.609zL8.84 8.44zM2.646 4.82l-.375.05 2.236-.293zm7.083.05-.376-.05-1.86-.243z"/></svg>
